static/assets/images/exchanges/vvs.svg

<svg width="287" height="256" viewBox="0 0 287 256" fill="none" xmlns="http://www.w3.org/2000/svg">
<path d="M143.486 256C132.881 256.026 122.375 253.947 112.576 249.882C102.778 245.818 93.8813 239.849 86.4006 232.32L23.6121 169.501C-7.87069 137.964 -7.87069 86.6561 23.6121 55.1386L54.9768 23.7294C62.4617 16.1864 71.3665 10.2052 81.1755 6.13207C90.9845 2.05892 101.503 -0.0252485 112.122 0.000230822H174.851C196.433 0.000230822 216.717 8.41867 231.957 23.6703L263.321 55.0795C294.794 86.6068 294.794 137.915 263.321 169.433L200.592 232.31C193.11 239.843 184.21 245.815 174.408 249.882C164.606 253.948 154.096 256.027 143.486 256ZM112.122 25.3836C97.3143 25.3836 83.4116 31.1436 72.9796 41.6592L41.5559 73.0586C19.984 94.661 19.984 129.861 41.5559 151.513L104.285 214.331C109.416 219.497 115.517 223.594 122.237 226.388C128.956 229.181 136.162 230.615 143.437 230.607C158.245 230.607 172.147 224.847 182.579 214.341L245.319 151.513C266.891 129.91 266.891 94.7102 245.319 73.0586L213.954 41.6494C208.824 36.4831 202.723 32.3851 196.003 29.5916C189.283 26.7982 182.078 25.3647 174.802 25.3737H112.122V25.3836Z" fill="white"/>
<path d="M143.496 218.24C137.249 218.257 131.062 217.031 125.292 214.632C119.523 212.234 114.287 208.711 109.89 204.268L53.1086 147.466C44.2076 138.524 39.2094 126.413 39.2094 113.787C39.2094 101.161 44.2076 89.0503 53.1086 80.1083L81.5041 51.7318C85.9076 47.3011 91.1457 43.7898 96.9145 41.4016C102.683 39.0134 108.868 37.7957 115.111 37.8192H171.823C184.506 37.8192 196.482 42.7718 205.429 51.7908L233.815 80.2166C242.716 89.1586 247.714 101.27 247.714 113.895C247.714 126.521 242.716 138.632 233.815 147.574L177.103 204.268C172.706 208.713 167.47 212.237 161.701 214.638C155.932 217.038 149.744 218.256 143.496 218.24ZM115.111 63.2124C109.192 63.2124 103.607 65.5065 99.4479 69.7108L71.0622 98.1465C66.9182 102.32 64.5921 107.966 64.5921 113.851C64.5921 119.736 66.9182 125.382 71.0622 129.556L127.784 186.358C136.142 194.727 150.792 194.727 159.149 186.358L215.871 129.556C220.015 125.382 222.341 119.736 222.341 113.851C222.341 107.966 220.015 102.32 215.871 98.1465L187.485 69.7108C185.436 67.6403 182.996 65.9986 180.307 64.8812C177.618 63.7639 174.734 63.1933 171.823 63.2025L115.111 63.2124Z" fill="white"/>
<path d="M143.486 181.011L78.407 115.84L119.26 74.9883H167.723L208.576 115.85L143.486 181.011Z" fill="white"/>
</svg>

<svg xmlns="http://www.w3.org/2000/svg" fill="none" viewBox="0 0 287 256"><path fill="#fff" d="M143.486 256a80.2 80.2 0 0 1-30.91-6.118 80.2 80.2 0 0 1-26.175-17.562l-62.789-62.819c-31.483-31.537-31.483-82.845 0-114.362l31.365-31.41A80.3 80.3 0 0 1 81.176 6.132 80.2 80.2 0 0 1 112.122 0h62.729c21.582 0 41.866 8.419 57.106 23.67l31.364 31.41c31.473 31.527 31.473 82.835 0 114.353l-62.729 62.877a80.3 80.3 0 0 1-26.184 17.572A80.2 80.2 0 0 1 143.486 256M112.122 25.384c-14.808 0-28.71 5.76-39.142 16.275l-31.424 31.4c-21.572 21.602-21.572 56.802 0 78.454l62.729 62.818a55.1 55.1 0 0 0 17.952 12.057 55.1 55.1 0 0 0 21.2 4.219c14.808 0 28.71-5.76 39.142-16.266l62.74-62.828c21.572-21.603 21.572-56.803 0-78.454l-31.365-31.41a55.1 55.1 0 0 0-17.951-12.057 55.1 55.1 0 0 0-21.201-4.218h-62.68z"/><path fill="#fff" d="M143.496 218.24a47.1 47.1 0 0 1-33.606-13.972l-56.781-56.802a47.74 47.74 0 0 1-13.9-33.679 47.74 47.74 0 0 1 13.9-33.679l28.395-28.376a47.2 47.2 0 0 1 15.41-10.33 47.1 47.1 0 0 1 18.197-3.583h56.712c12.683 0 24.659 4.953 33.606 13.972l28.386 28.426a47.74 47.74 0 0 1 13.899 33.678 47.74 47.74 0 0 1-13.899 33.679l-56.712 56.694a47.1 47.1 0 0 1-15.402 10.37 47.1 47.1 0 0 1-18.205 3.602M115.111 63.212c-5.919 0-11.504 2.294-15.663 6.499L71.062 98.147a22.29 22.29 0 0 0 0 31.41l56.722 56.801c8.358 8.369 23.008 8.369 31.365 0l56.722-56.802a22.29 22.29 0 0 0 0-31.41l-28.386-28.435a21.95 21.95 0 0 0-15.662-6.508z"/><path fill="#fff" d="M143.486 181.011 78.407 115.84l40.853-40.852h48.463l40.853 40.862z"/></svg>
